src/img/icons/payments/transparent/paypoint.svg

<?xml version="1.0" encoding="iso-8859-1"?>
<!-- Generator: Adobe Illustrator 19.1.0, SVG Export Plug-In . SVG Version: 6.00 Build 0)  -->
<svg version="1.1" id="Layer_1" xmlns="http://www.w3.org/2000/svg" xmlns:xlink="http://www.w3.org/1999/xlink" x="0px" y="0px"
	 viewBox="0 0 125.43 78.393" style="enable-background:new 0 0 125.43 78.393;" xml:space="preserve">
<g>
	<path style="fill:#1D2877;" d="M32.195,57.86h0.756c1.025,0,1.83-0.366,1.83-1.537c0-1.122-0.805-1.488-1.83-1.488h-0.756V57.86z
		 M29.243,52.736h3.537c3.391,0,4.977,1.147,4.977,3.635c0,2.244-1.635,3.586-4.416,3.586h-1.147v3.879h-2.952V52.736z"/>
	<path style="fill:#1D2877;" d="M41.075,62.129c1.073,0,1.757-0.976,1.757-1.952c-0.366-0.024-0.781-0.049-1.22-0.049
		c-0.976,0-1.732,0.293-1.732,1.098C39.88,61.788,40.392,62.129,41.075,62.129 M43.052,63.837c-0.024-0.439-0.073-0.878-0.073-1.293
		h-0.024c-0.659,1.025-1.439,1.488-2.635,1.488c-1.635,0-3.098-0.805-3.098-2.61c0-2.537,2.757-2.83,4.269-2.83
		c0.464,0,0.976,0.049,1.342,0.122c-0.024-1.122-0.854-1.439-1.903-1.439c-0.927,0-1.854,0.171-2.635,0.61l-0.049-1.952
		c1.025-0.415,2.074-0.586,3.318-0.586c2.122,0,3.952,0.903,3.952,3.44v3.098c0,0.659,0.024,1.293,0.171,1.952L43.052,63.837
		L43.052,63.837z"/>
	<path style="fill:#1D2877;" d="M46.638,65.008c0.39,0.122,0.732,0.171,1.122,0.171c0.707,0,1.244-0.415,1.439-1.147l-3.342-8.466
		h3.098l1.781,5.416h0.024l1.708-5.416h2.854l-3.05,7.709c-0.805,2.074-1.439,4.099-4.05,4.099c-0.61,0-1.195-0.073-1.781-0.195
		L46.638,65.008z"/>
	<path style="fill:#1D2877;" d="M58.958,57.86h0.756c1.025,0,1.83-0.366,1.83-1.537c0-1.122-0.805-1.488-1.83-1.488h-0.756V57.86z
		 M56.006,52.736h3.513c3.391,0,4.977,1.147,4.977,3.635c0,2.244-1.635,3.586-4.416,3.586h-1.147v3.879h-2.952v-11.1H56.006z"/>
	<path style="fill:#1D2877;" d="M71.132,59.714c0-1.244-0.537-2.342-1.854-2.342s-1.854,1.098-1.854,2.342
		c0,1.22,0.537,2.318,1.854,2.318S71.132,60.934,71.132,59.714 M64.447,59.714c0-2.757,2.074-4.343,4.83-4.343
		c2.732,0,4.83,1.586,4.83,4.343c0,2.732-2.074,4.318-4.83,4.318C66.545,64.032,64.447,62.446,64.447,59.714"/>
	<path style="fill:#1D2877;" d="M74.84,55.566h2.854v8.295H74.84V55.566z M77.719,54.591h-2.854v-1.854h2.854V54.591z"/>
	<path style="fill:#1D2877;" d="M79.353,55.566h2.61v1.537h0.024c0.561-1.195,1.708-1.708,3.025-1.708
		c2.269,0,3.172,1.586,3.172,3.318v5.172H85.33v-4.001c0-1.561-0.537-2.074-1.317-2.074c-1.171,0-1.781,0.805-1.781,2.586v3.513
		h-2.854v-8.344H79.353z"/>
	<path style="fill:#1D2877;" d="M88.599,55.566h1.683v-1.854l2.806-0.878v2.732h2v2h-2v3.05c0,1,0.244,1.513,1.147,1.513
		c0.293,0,0.586-0.073,0.878-0.122l0.098,1.854c-0.537,0.073-1.073,0.171-1.805,0.171c-2.562,0-3.172-1.122-3.172-3.098v-3.367
		h-1.635V55.566z"/>
	<path style="fill:#1D2877;" d="M32.195,57.86h0.756c1.025,0,1.83-0.366,1.83-1.537c0-1.122-0.805-1.488-1.83-1.488h-0.756V57.86z
		 M29.243,52.736h3.537c3.391,0,4.977,1.147,4.977,3.635c0,2.244-1.635,3.586-4.416,3.586h-1.147v3.879h-2.952V52.736z"/>
	<path style="fill:#1D2877;" d="M41.075,62.129c1.073,0,1.757-0.976,1.757-1.952c-0.366-0.024-0.781-0.049-1.22-0.049
		c-0.976,0-1.732,0.293-1.732,1.098C39.88,61.788,40.392,62.129,41.075,62.129 M43.052,63.837c-0.024-0.439-0.073-0.878-0.073-1.293
		h-0.024c-0.659,1.025-1.439,1.488-2.635,1.488c-1.635,0-3.098-0.805-3.098-2.61c0-2.537,2.757-2.83,4.269-2.83
		c0.464,0,0.976,0.049,1.342,0.122c-0.024-1.122-0.854-1.439-1.903-1.439c-0.927,0-1.854,0.171-2.635,0.61l-0.049-1.952
		c1.025-0.415,2.074-0.586,3.318-0.586c2.122,0,3.952,0.903,3.952,3.44v3.098c0,0.659,0.024,1.293,0.171,1.952L43.052,63.837
		L43.052,63.837z"/>
	<path style="fill:#1D2877;" d="M46.638,65.008c0.39,0.122,0.732,0.171,1.122,0.171c0.707,0,1.244-0.415,1.439-1.147l-3.342-8.466
		h3.098l1.781,5.416h0.024l1.708-5.416h2.854l-3.05,7.709c-0.805,2.074-1.439,4.099-4.05,4.099c-0.61,0-1.195-0.073-1.781-0.195
		L46.638,65.008z"/>
	<path style="fill:#1D2877;" d="M58.958,57.86h0.756c1.025,0,1.83-0.366,1.83-1.537c0-1.122-0.805-1.488-1.83-1.488h-0.756V57.86z
		 M56.006,52.736h3.513c3.391,0,4.977,1.147,4.977,3.635c0,2.244-1.635,3.586-4.416,3.586h-1.147v3.879h-2.952v-11.1H56.006z"/>
	<path style="fill:#1D2877;" d="M71.132,59.714c0-1.244-0.537-2.342-1.854-2.342s-1.854,1.098-1.854,2.342
		c0,1.22,0.537,2.318,1.854,2.318S71.132,60.934,71.132,59.714 M64.447,59.714c0-2.757,2.074-4.343,4.83-4.343
		c2.732,0,4.83,1.586,4.83,4.343c0,2.732-2.074,4.318-4.83,4.318C66.545,64.032,64.447,62.446,64.447,59.714"/>
	<path style="fill:#1D2877;" d="M74.84,55.566h2.854v8.295H74.84V55.566z M77.719,54.591h-2.854v-1.854h2.854V54.591z"/>
	<path style="fill:#1D2877;" d="M79.353,55.566h2.61v1.537h0.024c0.561-1.195,1.708-1.708,3.025-1.708
		c2.269,0,3.172,1.586,3.172,3.318v5.172H85.33v-4.001c0-1.561-0.537-2.074-1.317-2.074c-1.171,0-1.781,0.805-1.781,2.586v3.513
		h-2.854v-8.344H79.353z"/>
	<path style="fill:#1D2877;" d="M88.599,55.566h1.683v-1.854l2.806-0.878v2.732h2v2h-2v3.05c0,1,0.244,1.513,1.147,1.513
		c0.293,0,0.586-0.073,0.878-0.122l0.098,1.854c-0.537,0.073-1.073,0.171-1.805,0.171c-2.562,0-3.172-1.122-3.172-3.098v-3.367
		h-1.635V55.566z"/>
	<path style="fill:#1D2877;" d="M74.254,29.56h-3.269v-9.563h3.22c3.611,0,7.197,0.488,7.197,4.586
		C81.378,28.901,77.792,29.56,74.254,29.56 M82.061,11.019H56.518c3.855,0,12.393,3.464,12.393,13.296
		c0,10.076-6.831,14.223-12.369,14.223h-0.024v11.125h14.833V38.538h10.637c7.758,0,14.223-4.147,14.223-14.223
		C96.235,13.898,88.087,11.019,82.061,11.019"/>
	<path style="fill:#1D2877;" d="M46.931,29.56h-3.269v-9.563h3.22c3.611,0,7.197,0.488,7.197,4.586
		C54.079,28.901,50.468,29.56,46.931,29.56 M29.219,11.019v38.644h14.833V38.538h12.466V11.019H29.219z"/>
</g>
</svg>

<svg id="Layer_1" data-name="Layer 1" xmlns="http://www.w3.org/2000/svg" viewBox="0 0 125.43 78.39"><defs><style>.cls-1{fill:#1d2877;}</style></defs><title>payment-icons</title><path class="cls-1" d="M32.2,57.86H33c1,0,1.83-.37,1.83-1.54S34,54.83,33,54.83H32.2v3Zm-3-5.12h3.54c3.39,0,5,1.15,5,3.64,0,2.24-1.63,3.59-4.42,3.59H32.2v3.88h-3V52.74Z"/><path class="cls-1" d="M41.08,62.13a1.86,1.86,0,0,0,1.76-2c-0.37,0-.78,0-1.22,0-1,0-1.73.29-1.73,1.1a1,1,0,0,0,1.2.9m2,1.71C43,63.4,43,63,43,62.54h0A2.86,2.86,0,0,1,40.32,64c-1.63,0-3.1-.81-3.1-2.61,0-2.54,2.76-2.83,4.27-2.83a7.4,7.4,0,0,1,1.34.12c0-1.12-.85-1.44-1.9-1.44a5.38,5.38,0,0,0-2.63.61l0-2a8.55,8.55,0,0,1,3.32-.59c2.12,0,4,.9,4,3.44v3.1a8.8,8.8,0,0,0,.17,2H43.05Z"/><path class="cls-1" d="M46.64,65a3.58,3.58,0,0,0,1.12.17A1.43,1.43,0,0,0,49.2,64l-3.34-8.47H49L50.74,61h0l1.71-5.42h2.85l-3,7.71c-0.81,2.07-1.44,4.1-4,4.1a8.66,8.66,0,0,1-1.78-.2Z"/><path class="cls-1" d="M59,57.86h0.76c1,0,1.83-.37,1.83-1.54s-0.81-1.49-1.83-1.49H59v3Zm-3-5.12h3.51c3.39,0,5,1.15,5,3.64,0,2.24-1.63,3.59-4.42,3.59H58.93v3.88H56V52.74h0Z"/><path class="cls-1" d="M71.13,59.71c0-1.24-.54-2.34-1.85-2.34s-1.85,1.1-1.85,2.34S68,62,69.28,62s1.85-1.1,1.85-2.32m-6.68,0c0-2.76,2.07-4.34,4.83-4.34s4.83,1.59,4.83,4.34S72,64,69.28,64s-4.83-1.59-4.83-4.32"/><path class="cls-1" d="M74.84,55.57h2.85v8.29H74.84V55.57Zm2.88-1H74.86V52.74h2.85v1.85Z"/><path class="cls-1" d="M79.35,55.57H82V57.1h0a3.11,3.11,0,0,1,3-1.71,3,3,0,0,1,3.17,3.32v5.17H85.33v-4c0-1.56-.54-2.07-1.32-2.07-1.17,0-1.78.81-1.78,2.59v3.51H79.38V55.57h0Z"/><path class="cls-1" d="M88.6,55.57h1.68V53.71l2.81-.88v2.73h2v2h-2v3c0,1,.24,1.51,1.15,1.51A5.43,5.43,0,0,0,95.11,62l0.1,1.85a12,12,0,0,1-1.81.17c-2.56,0-3.17-1.12-3.17-3.1V57.57H88.6v-2Z"/><path class="cls-1" d="M32.2,57.86H33c1,0,1.83-.37,1.83-1.54S34,54.83,33,54.83H32.2v3Zm-3-5.12h3.54c3.39,0,5,1.15,5,3.64,0,2.24-1.63,3.59-4.42,3.59H32.2v3.88h-3V52.74Z"/><path class="cls-1" d="M41.08,62.13a1.86,1.86,0,0,0,1.76-2c-0.37,0-.78,0-1.22,0-1,0-1.73.29-1.73,1.1a1,1,0,0,0,1.2.9m2,1.71C43,63.4,43,63,43,62.54h0A2.86,2.86,0,0,1,40.32,64c-1.63,0-3.1-.81-3.1-2.61,0-2.54,2.76-2.83,4.27-2.83a7.4,7.4,0,0,1,1.34.12c0-1.12-.85-1.44-1.9-1.44a5.38,5.38,0,0,0-2.63.61l0-2a8.55,8.55,0,0,1,3.32-.59c2.12,0,4,.9,4,3.44v3.1a8.8,8.8,0,0,0,.17,2H43.05Z"/><path class="cls-1" d="M46.64,65a3.58,3.58,0,0,0,1.12.17A1.43,1.43,0,0,0,49.2,64l-3.34-8.47H49L50.74,61h0l1.71-5.42h2.85l-3,7.71c-0.81,2.07-1.44,4.1-4,4.1a8.66,8.66,0,0,1-1.78-.2Z"/><path class="cls-1" d="M59,57.86h0.76c1,0,1.83-.37,1.83-1.54s-0.81-1.49-1.83-1.49H59v3Zm-3-5.12h3.51c3.39,0,5,1.15,5,3.64,0,2.24-1.63,3.59-4.42,3.59H58.93v3.88H56V52.74h0Z"/><path class="cls-1" d="M71.13,59.71c0-1.24-.54-2.34-1.85-2.34s-1.85,1.1-1.85,2.34S68,62,69.28,62s1.85-1.1,1.85-2.32m-6.68,0c0-2.76,2.07-4.34,4.83-4.34s4.83,1.59,4.83,4.34S72,64,69.28,64s-4.83-1.59-4.83-4.32"/><path class="cls-1" d="M74.84,55.57h2.85v8.29H74.84V55.57Zm2.88-1H74.86V52.74h2.85v1.85Z"/><path class="cls-1" d="M79.35,55.57H82V57.1h0a3.11,3.11,0,0,1,3-1.71,3,3,0,0,1,3.17,3.32v5.17H85.33v-4c0-1.56-.54-2.07-1.32-2.07-1.17,0-1.78.81-1.78,2.59v3.51H79.38V55.57h0Z"/><path class="cls-1" d="M88.6,55.57h1.68V53.71l2.81-.88v2.73h2v2h-2v3c0,1,.24,1.51,1.15,1.51A5.43,5.43,0,0,0,95.11,62l0.1,1.85a12,12,0,0,1-1.81.17c-2.56,0-3.17-1.12-3.17-3.1V57.57H88.6v-2Z"/><path class="cls-1" d="M74.25,29.56H71V20h3.22c3.61,0,7.2.49,7.2,4.59,0,4.32-3.61,5-7.15,5M82.06,11H56.52a13.05,13.05,0,0,1,12.39,13.3c0,10.08-6.83,14.22-12.37,14.22h0V49.66H71.35V38.54H82c7.76,0,14.22-4.15,14.22-14.22C96.24,13.9,88.09,11,82.06,11"/><path class="cls-1" d="M46.93,29.56H43.66V20h3.22c3.61,0,7.2.49,7.2,4.59,0,4.32-3.61,5-7.15,5M29.22,11V49.66H44.05V38.54H56.52V11H29.22Z"/></svg>
